X:1
T:Deck the Halls
M:4/4
L:1/4
K:C
 G3/2 F/2 E D| C D E C| D/2E/2 F/2D/2 E3/2 D/2| C B, C2| G3/2 F/2 E D|\
 C D E C| D/2E/2 F/2D/2 E3/2 D/2| C B, C2| D3/2 E/2 F D| E3/2 F/2 G D|\
 E/2^F/2 G A/2B/2 c| B A G2| G3/2 F/2 E D| C D E C| A/2A/2 A/2A/2 G3/2 F/2|\
 E D C2|
